img/favorite-svg.svg

<svg width="14" height="14" viewBox="0 0 14 14" fill="none" xmlns="http://www.w3.org/2000/svg">
<path d="M12.8909 1.99447C12.5504 1.65381 12.1461 1.38357 11.7011 1.19919C11.2562 1.01482 10.7792 0.919922 10.2976 0.919922C9.8159 0.919922 9.33896 1.01482 8.89399 1.19919C8.44901 1.38357 8.04473 1.65381 7.70422 1.99447L6.99756 2.70114L6.29089 1.99447C5.6031 1.30668 4.67025 0.920278 3.69756 0.920278C2.72487 0.920278 1.79202 1.30668 1.10422 1.99447C0.416428 2.68227 0.0300293 3.61512 0.0300293 4.58781C0.0300293 5.56049 0.416428 6.49334 1.10422 7.18114L1.81089 7.88781L6.99756 13.0745L12.1842 7.88781L12.8909 7.18114C13.2316 6.84064 13.5018 6.43635 13.6862 5.99138C13.8705 5.5464 13.9654 5.06946 13.9654 4.58781C13.9654 4.10615 13.8705 3.62921 13.6862 3.18424C13.5018 2.73926 13.2316 2.33498 12.8909 1.99447Z" fill="#2D3440"/>
</svg>

<svg width="14" height="14" fill="none" xmlns="http://www.w3.org/2000/svg"><path d="M12.8909 1.99447A3.66664 3.66664 0 0 0 10.2976.91992a3.66679 3.66679 0 0 0-2.59338 1.07455l-.70666.70667-.70667-.70667a3.66753 3.66753 0 0 0-5.18667 5.18667l.70667.70667 5.18667 5.18669 5.18664-5.18669.7067-.70667a3.66653 3.66653 0 0 0 .7953-1.18976 3.66806 3.66806 0 0 0 .2792-1.40357c0-.48166-.0949-.9586-.2792-1.40357a3.66657 3.66657 0 0 0-.7953-1.18977Z" fill="#2D3440"/></svg>
